Origami/24x24/apps/evelauncher.svg

<svg width="24" height="24" version="1" xmlns="http://www.w3.org/2000/svg">
 <rect transform="matrix(0,-1,-1,0,0,0)" x="-22.5" y="-23" width="21" height="21" rx="1.05" ry="1.05" style="opacity:.2"/>
 <rect transform="matrix(0,-1,-1,0,0,0)" x="-22" y="-23" width="21" height="21" rx="1.05" ry="1.05" style="fill:#4f4f4f"/>
 <path d="m6 5.4999993v4h3v-1h10v-3zm0 4.9999997v3h13v-3zm0 4v4h13v-3h-10v-1z" style="opacity:.2"/>
 <path d="m6 5v4h3v-1h10v-3zm0 5v3h13v-3zm0 4v4h13v-3h-10v-1z" style="fill:#ffffff"/>
 <path d="M 3.0507812 1 C 2.4690813 1 2 1.4690813 2 2.0507812 L 2 2.5507812 C 2 1.9690813 2.4690813 1.5 3.0507812 1.5 L 21.949219 1.5 C 22.530919 1.5 23 1.9690813 23 2.5507812 L 23 2.0507812 C 23 1.4690813 22.530919 1 21.949219 1 L 3.0507812 1 z" style="fill:#ffffff;opacity:.1"/>
</svg>

<svg xmlns="http://www.w3.org/2000/svg" width="24" height="24" version="1">
 <rect width="21" height="21" x="-22.5" y="-23" rx="1.05" ry="1.05" transform="matrix(0,-1,-1,0,0,0)" style="opacity:0.2"/>
 <rect style="fill:#4f4f4f" width="21" height="21" x="-22" y="-23" rx="1.05" ry="1.05" transform="matrix(0,-1,-1,0,0,0)"/>
 <path d="m 6,5.4999993 v 3 1 h 3 v -1 h 10 v -3 z m 0,4.9999997 v 3 h 13 v -3 z m 0,4 v 1 3 h 13 v -3 H 9 v -1 z" style="opacity:0.2"/>
 <path style="fill:#ffffff" d="M 6,5 V 8 9 H 9 V 8 H 19 V 5 Z m 0,5 v 3 h 13 v -3 z m 0,4 v 1 3 H 19 V 15 H 9 v -1 z"/>
 <path style="fill:#ffffff;opacity:0.1" d="M 3.0507812 1 C 2.4690813 1 2 1.4690813 2 2.0507812 L 2 2.5507812 C 2 1.9690813 2.4690813 1.5 3.0507812 1.5 L 21.949219 1.5 C 22.530919 1.5 23 1.9690813 23 2.5507812 L 23 2.0507812 C 23 1.4690813 22.530919 1 21.949219 1 L 3.0507812 1 z"/>
</svg>
